X:21
T: Das Maedchen und der Faehnrich
N: Q0127B
O: Osteuropa, UdSSR, Ukraine
R: Ballade, verbotene Liebe, Flucht
M: 2/4
L: 1/8
K: B
d | fffe | ddd
c | BBgf | f2e
c | eeed | ccc
c | fedc | B2B
